Yaru++/actions/16/stock_xfburn-new-data-composition.svg

<svg height="16" width="16" xmlns="http://www.w3.org/2000/svg">
  <g fill="#808080">
    <g transform="translate(-272 -160)">
      <path d="m280 165a3 3 0 0 0 -3 3 3 3 0 0 0 3 3 3 3 0 0 0 3-3 3 3 0 0 0 -3-3zm0 1.5a1.5 1.5 0 0 1 1.5 1.5 1.5 1.5 0 0 1 -1.5 1.5 1.5 1.5 0 0 1 -1.5-1.5 1.5 1.5 0 0 1 1.5-1.5z"/>
      <path d="m8 0a8 8 0 0 0 -8 8 8 8 0 0 0 8 8 8 8 0 0 0 1.4921875-.144531v-1.025391a7 7 0 0 1 -1.4921875.169922 7 7 0 0 1 -7-7 7 7 0 0 1 7-7 7 7 0 0 1 7 7 7 7 0 0 1 -.644531 2.916016h1.09375a8 8 0 0 0 .550781-2.916016 8 8 0 0 0 -8-8z" transform="translate(272 160)"/>
    </g>
    <path d="m12.500001 11.000032v2h-2.000001v1h2.000001v2h1v-2h2v-1h-2v-2z"/>
  </g>
</svg>

<svg xmlns="http://www.w3.org/2000/svg" width="16" height="16" version="1.1">
 <g transform="translate(-272,-160)">
  <path d="m 280,165 a 3,3 0 0 0 -3,3 3,3 0 0 0 3,3 3,3 0 0 0 3,-3 3,3 0 0 0 -3,-3 z m 0,1.5 a 1.5,1.5 0 0 1 1.5,1.5 1.5,1.5 0 0 1 -1.5,1.5 1.5,1.5 0 0 1 -1.5,-1.5 1.5,1.5 0 0 1 1.5,-1.5 z" style="fill:#808080"/>
  <path style="fill:#808080" d="M 8 0 A 8 8 0 0 0 0 8 A 8 8 0 0 0 8 16 A 8 8 0 0 0 9.4921875 15.855469 L 9.4921875 14.830078 A 7 7 0 0 1 8 15 A 7 7 0 0 1 1 8 A 7 7 0 0 1 8 1 A 7 7 0 0 1 15 8 A 7 7 0 0 1 14.355469 10.916016 L 15.449219 10.916016 A 8 8 0 0 0 16 8 A 8 8 0 0 0 8 0 z" transform="translate(272,160)"/>
 </g>
 <path d="m 12.500001,11.000032 v 2 H 10.5 v 1 h 2.000001 v 2 h 1 v -2 h 2 v -1 h -2 v -2 z" style="fill:#808080"/>
</svg>
